src/svgs/braille.svg

<svg xmlns="http://www.w3.org/2000/svg" viewBox="0 0 24 24" width="512" height="512"><path d="M7 1a3 3 0 103 3 3 3 0 00-3-3zm0 5a2 2 0 112-2 2 2 0 01-2 2zm-3 6a3 3 0 113 3 3 3 0 01-3-3zm10 0a3 3 0 113 3 3 3 0 01-3-3zm3 5a3 3 0 103 3 3 3 0 00-3-3zm0 5a2 2 0 112-2 2 2 0 01-2 2zM14 4a3 3 0 113 3 3 3 0 01-3-3zM7 17a3 3 0 103 3 3 3 0 00-3-3zm0 5a2 2 0 112-2 2 2 0 01-2 2z"/></svg>

<svg xmlns="http://www.w3.org/2000/svg" viewBox="0 0 24 24"><path d="M7,1a3,3,0,1,0,3,3A3,3,0,0,0,7,1ZM7,6A2,2,0,1,1,9,4,2,2,0,0,1,7,6ZM4,12a3,3,0,1,1,3,3A3,3,0,0,1,4,12Zm10,0a3,3,0,1,1,3,3A3,3,0,0,1,14,12Zm3,5a3,3,0,1,0,3,3A3,3,0,0,0,17,17Zm0,5a2,2,0,1,1,2-2A2,2,0,0,1,17,22ZM14,4a3,3,0,1,1,3,3A3,3,0,0,1,14,4ZM7,17a3,3,0,1,0,3,3A3,3,0,0,0,7,17Zm0,5a2,2,0,1,1,2-2A2,2,0,0,1,7,22Z"/></svg>
